public/assets/icons/favicon.svg

<svg xmlns="http://www.w3.org/2000/svg" viewBox="0 0 627 894" fill="none">
  <style>
    #letter-a {
      fill: black;
    }
    @media (prefers-color-scheme: dark) {
      #letter-a {
        fill: white;
      }
    }
  </style>
  <path
    id="letter-a"
    fill-rule="evenodd"
    clip-rule="evenodd"
    d="M445.433 22.9832C452.722 32.0324 456.439 44.2432 463.873 68.6647L626.281 602.176C566.234 571.026 500.957 548.56 432.115 536.439L326.371 179.099C324.641 173.252 319.27 169.241 313.173 169.241C307.06 169.241 301.68 173.273 299.963 179.14L195.5 536.259C126.338 548.325 60.7632 570.832 0.459473 602.095L163.664 68.5412C171.121 44.1617 174.85 31.9718 182.14 22.9393C188.575 14.9651 196.946 8.77213 206.454 4.95048C217.224 0.621582 229.971 0.621582 255.466 0.621582H372.034C397.562 0.621582 410.326 0.621582 421.106 4.95951C430.622 8.78908 438.998 14.9946 445.433 22.9832Z"
  />
  <path
    fill-rule="evenodd"
    clip-rule="evenodd"
    d="M464.867 627.566C438.094 650.46 384.655 666.073 323.101 666.073C247.551 666.073 184.229 642.553 167.426 610.921C161.419 629.05 160.072 649.798 160.072 663.052C160.072 663.052 156.114 728.134 201.38 773.401C201.38 749.896 220.435 730.842 243.939 730.842C284.226 730.842 284.181 765.99 284.144 794.506C284.143 795.36 284.142 796.209 284.142 797.051C284.142 840.333 310.595 877.436 348.215 893.075C342.596 881.518 339.444 868.54 339.444 854.825C339.444 813.545 363.679 798.175 391.845 780.311C414.255 766.098 439.155 750.307 456.315 718.629C465.268 702.101 470.352 683.17 470.352 663.052C470.352 650.68 468.43 638.757 464.867 627.566Z"
    fill="#FF5D01"
  />
</svg>

<svg xmlns="http://www.w3.org/2000/svg" viewBox="0 0 627 894" fill="none" xmlns:v="https://vecta.io/nano"><path fill-rule="evenodd" d="M445.433 22.983c7.289 9.049 11.006 21.26 18.44 45.682l162.408 533.511c-60.047-31.15-125.324-53.616-194.166-65.737l-105.744-357.34c-1.73-5.847-7.101-9.858-13.198-9.858-6.113 0-11.493 4.032-13.21 9.899L195.5 536.259A675.82 675.82 0 0 0 .459 602.095L163.664 68.541c7.457-24.379 11.186-36.569 18.476-45.602 6.435-7.974 14.806-14.167 24.314-17.989C217.224.622 229.971.622 255.466.622h116.568c25.528 0 38.292 0 49.072 4.338 9.516 3.83 17.892 10.035 24.327 18.024z" fill="#000"/><path fill-rule="evenodd" d="M464.867 627.566c-26.773 22.894-80.212 38.507-141.766 38.507-75.55 0-138.872-23.52-155.675-55.152-6.007 18.129-7.354 38.877-7.354 52.131 0 0-3.958 65.082 41.308 110.349 0-23.505 19.055-42.559 42.559-42.559 40.287 0 40.242 35.148 40.205 63.664l-.002 2.545c0 43.282 26.453 80.385 64.073 96.024-5.619-11.557-8.771-24.535-8.771-38.25 0-41.28 24.235-56.65 52.401-74.514 22.41-14.213 47.31-30.004 64.47-61.682 8.953-16.528 14.037-35.459 14.037-55.577 0-12.372-1.922-24.295-5.485-35.486z" fill="#ff5d01"/></svg>
